X:166
T:Sweet Georgia Brown
C:Chris Thile (Thile and Friends)
N:TablEdited by Steve Keating
L:1/8
Q:1/4=300
M:4/4
K:F
z8 | "D"D2 E2 _G2 D2 | A2 _G=B zA B2 | {_d}=dd zd A2 _GD | zD z2 zC DD | "G"D2 E2 F2 D2 | 
AD F=B zA B2 | {_d}=dd zA =B2 AG | z4 zA, CC | "C"C2 D2 E2 C2 | G2 EA zG A2 | 
{=B}c4 G2 EC | z2 CD z_D =D2 | "F"GA z2 A4 | z2 CD zC D2 | GA z2 A4 | "A7"G2 EA z2 DD | 
"D"D2 E2 _G2 D2 | A2 _G=B zA B2 | {_d}=dd zd A2 _GD | zD z3C DD | "G"D2 E2 F2 D2 | 
A2 F=B zA B2 | {_d}=d4 =B2 AG | z8 | "Dm"zG AA A2 A2 | "A7"G2 EA z4 | "Dm"zG AA A2 A2 | 
"A7"G2 EA z4 | "F"C2 D2 F2 GA | c2 _d2 "D"=d2 A2 | "G"G2 zc "C"AG z2 | "F"F2 F2 E2 _E2 | 
DE _G=G A=B c_e | _d=d e_g =g_a =a_g | d_g ed A=B cB | AG F_G dG cG | B=B GE FE DC | 
B,=B, DG _GA =G_G | GA =Bd gd _gd | fd eg bc' zb | ag f_e =ec GA | Bd fb af _af | 
ga bg df _e=e | c_d =dA A2 G2 | F2 G/A/c dA cd | f2 ga c'd' f'f | _e'd' c'b _a=a f2 | 
eg =bd' bg _d'2 | zc' z2 =b2 _b2 | a=b c'b aA g2 | f_g =g_a =af _gd | Ac =BG AG E_G | 
GG DG =BB GB | _dd =Bd =dd _d=d | gg dg aa ga | =bA aA gA _ge | d2 d2 _gd ef | 
ed ed cA c=B | A=B AG FE DF | ED C/_D/E GB AG | AB c2 =Bc B2 | Bc BG AG Ac | dA cd fg _a=a | 
b=b c'2 c'2 _d'2 | d'8 | "Skipped over mea"z8 | zf eg fc dc | Ac dc AF G_A | Ac Ac _dc d=d | 
z4 z2 DE | F_G A2 cG Ac | dg _gd g2 =g2 | _a=a aA f_g dD | c2 B=B GF DF | zF zD CG, B,=B, | 
G,B, =B,G, C_D =DF | G2 F_G Ac A=G | FA DF DE/F/ DF | EC _DE GB AG | FA _d=d f_a =af | 
_af ef ed c2 | dc zA cc zA | d'c' z2 c'2 zd' | zc' za d'2 d'a | ze a=b c'b ag | 
f_g d=B AB ce | d'c' =bg _bg a=b | c'e gf _gd cd | B=B de g=b d'e' | g'2 f'e' d'c' b=b | 
gd _dc c2 =B2 | =Bg fA fe G_e | z_e =e2 =Bc z_e | ee _g=g G,=b c'2 | _e=e z=B c2 B2 | 
zB zG Ac dA | cd fg _a=a ba | fd cd _eG BG | Ac df za gf | ga bg ab c'_d' | _d'/=d'/d' d'2 d'c' ag | 
f_g a2 fg a2 | f_g a2 =bg af | ed =BA dd cA | =BG AG EG FE | DC B,=B, G,_B, =B,C | 
_D=D _E=E F_G =G_A | AB =Bc _d=d c_d | d2 D2 dd z2 | G2 EA z2 zG | Ac AA Ac de | 
fd ef g2 _a2 | a2 g2 ff eg | fd ed c=B _B_A | AG FA GF EG | F8 | z8 | z8 | 


